assets/themes/cycle_highways/fietssnelwegen-logo.svg

<?xml version="1.0" encoding="UTF-8" standalone="no"?>
<svg
   width="373"
   height="373"
   viewBox="0 0 373 373"
   version="1.1"
   id="svg7"
   sodipodi:docname="fietssnelwegen-logo.svg"
   inkscape:version="1.1.1 (1:1.1+202109281949+c3084ef5ed)"
   xmlns:inkscape="http://www.inkscape.org/namespaces/inkscape"
   xmlns:sodipodi="http://sodipodi.sourceforge.net/DTD/sodipodi-0.dtd"
   xmlns="http://www.w3.org/2000/svg"
   xmlns:svg="http://www.w3.org/2000/svg">
  <defs
     id="defs11" />
  <sodipodi:namedview
     id="namedview9"
     pagecolor="#505050"
     bordercolor="#eeeeee"
     borderopacity="1"
     inkscape:pageshadow="0"
     inkscape:pageopacity="0"
     inkscape:pagecheckerboard="0"
     showgrid="false"
     height="373px"
     inkscape:zoom="1.1701757"
     inkscape:cx="78.620674"
     inkscape:cy="79.475246"
     inkscape:current-layer="svg7" />
  <g
     id="surface1"
     transform="translate(0,16.174235)">
    <path
       style="fill:#147fde;fill-opacity:1;fill-rule:nonzero;stroke:none"
       d="M 186.76172,0 C 170.02344,0 155.38281,8.113281 148.05859,18.058594 120.86328,55.484375 95.757812,94.222656 73.007812,134.52734 c -36.875,64.90625 -61.453124,113.58985 -70.347656,138.19141 -4.707031,13.87109 -3.136718,29.05078 4.445313,41.35156 7.0625,12.82422 19.613281,21.46485 33.996093,23.5586 30.597657,3.40234 73.222658,7.58984 144.874998,7.32812 0.26172,0 -0.26172,0 0,0 71.65235,0.52344 115.0625,-3.66406 145.66016,-7.06641 14.38281,-2.09375 27.19531,-10.73437 34.25781,-23.55859 7.58203,-12.5625 9.15234,-27.74219 4.44531,-41.61328 C 361.44531,248.11719 336.86719,199.43359 299.99219,134.52734 277.24219,94.222656 252.13672,55.222656 224.67969,17.796875 217.62109,8.113281 202.71484,0 185.97656,0"
       id="path2" />
    <path
       style="fill:#ffffff;fill-opacity:1;fill-rule:nonzero;stroke:none"
       d="m 144.92187,275.59766 c 0,12.30078 7.84375,19.10546 18.30469,19.10546 10.46094,0 18.30469,-6.80468 18.30469,-19.10546 v -53.12891 h 37.65625 c 9.15234,0.52344 17,-6.54297 17.52344,-15.70313 0,-0.52343 0,-1.04687 0,-1.30859 0.25781,-8.90234 -7.0625,-16.49219 -15.95313,-16.49219 -0.52344,0 -1.04687,0 -1.30859,0 h -38.17969 v -35.59375 h 44.71875 c 10.98047,0 16.21094,-8.63672 16.21094,-16.75 0,-8.63671 -5.48828,-16.75 -16.21094,-16.75 H 163.75 c -9.9375,-0.26171 -18.56641,7.58985 -18.82813,17.53516 0,0.52344 0,1.04687 0,1.57031 z m 0,0"
       id="path4" />
  </g>
</svg>

<?xml version="1.0" encoding="UTF-8" standalone="yes"?>
<svg xmlns="http://www.w3.org/2000/svg" width="373px" height="345px" viewBox="0 0 373 345" version="1.1">
  <g id="surface1">
    <path style=" stroke:none;fill-rule:nonzero;fill:rgb(8.235294%,50.980395%,87.058824%);fill-opacity:1;" d="M 186.761719 0 C 170.023438 0 155.382812 8.113281 148.058594 18.058594 C 120.863281 55.484375 95.757812 94.222656 73.007812 134.527344 C 36.132812 199.433594 11.554688 248.117188 2.660156 272.71875 C -2.046875 286.589844 -0.476562 301.769531 7.105469 314.070312 C 14.167969 326.894531 26.71875 335.535156 41.101562 337.628906 C 71.699219 341.03125 114.324219 345.21875 185.976562 344.957031 C 186.238281 344.957031 185.714844 344.957031 185.976562 344.957031 C 257.628906 345.480469 301.039062 341.292969 331.636719 337.890625 C 346.019531 335.796875 358.832031 327.15625 365.894531 314.332031 C 373.476562 301.769531 375.046875 286.589844 370.339844 272.71875 C 361.445312 248.117188 336.867188 199.433594 299.992188 134.527344 C 277.242188 94.222656 252.136719 55.222656 224.679688 17.796875 C 217.621094 8.113281 202.714844 0 185.976562 0 "/>
    <path style=" stroke:none;fill-rule:nonzero;fill:rgb(100%,100%,100%);fill-opacity:1;" d="M 144.921875 275.597656 C 144.921875 287.898438 152.765625 294.703125 163.226562 294.703125 C 173.6875 294.703125 181.53125 287.898438 181.53125 275.597656 L 181.53125 222.46875 L 219.1875 222.46875 C 228.339844 222.992188 236.1875 215.925781 236.710938 206.765625 C 236.710938 206.242188 236.710938 205.71875 236.710938 205.457031 C 236.96875 196.554688 229.648438 188.964844 220.757812 188.964844 C 220.234375 188.964844 219.710938 188.964844 219.449219 188.964844 L 181.269531 188.964844 L 181.269531 153.371094 L 225.988281 153.371094 C 236.96875 153.371094 242.199219 144.734375 242.199219 136.621094 C 242.199219 127.984375 236.710938 119.871094 225.988281 119.871094 L 163.75 119.871094 C 153.8125 119.609375 145.183594 127.460938 144.921875 137.40625 C 144.921875 137.929688 144.921875 138.453125 144.921875 138.976562 Z M 144.921875 275.597656 "/>
  </g>
</svg>
